!!!!SEGMENT: pl-kc--40102-iii-1-saf--002-012_zielenski-mikolaj--communiones-totius-anni-dominica-in-sexagesima-introibo-ad-altare-dei.krn
!!!cenid: 16xx:1543
!!!COM: Zieleński, Mikołaj
!!!COM-rismID: pe30013481
!!!CDT: <1611->1611
!!!CNT: Polish
!!!GTL: Communiones totius anni
!!!OTL: Dominica in Sexagesima/Introibo ad altare Dei
!!!OMV: 012
!!!PDT: 1611
!!!AGN:
!!!YEC: Copyright 2022 Narodowy Instytut Fryderyka Chopina (https://polishscores.org)
!!!YEM: License CC-BY-4.0 (https://creativecommons.org/licenses/by/4.0)
!!!SMS-siglum: PL-Kc
!!!SMS-shelfmark: 40102 III/1 Saf.
!!!SMS-shelfwork: 002-012 G
!!!SMS-variant:
!!!SMS-altvar:
!!!NIFC-rismSourceID: 990069887
!!!NIFC-rismChildID: 990069887
!!!NIFC-islandoraID: none
!!!URL-pdf-islandora:
!!!URL-scan: https://cyfrowe.mnk.pl/dlibra/publication/24235/edition/23926/content?ref=desc @EN{Scan on The National Museum in Krakow Website} @PL{Skany w portalu Biblioteka Cyfrowa Muzeum Narodowego w Krakowie}
!!!IIIF:
!!!ONB-nifc: UWAGA: str. 51. Uwaga: W xml metrum 2/1 do źródłowego C| i odpowiednio 3/1 do 3/2
!!!AIN: 2 organ
!!!key:
**kern	**kern
*group1	*group1
*part2	*part1
*staff2	*staff1
*I"Organo	*I"Organo
*I'org	*I'org
*Iorgan	*Iorgan
*ICklav	*ICklav
*clefC3	*clefG2
*k[]	*k[]
*d:	*d:
*M2/1	*M2/1
*met(C|)	*met(C|)
=1	=1
!LO:TX:a:t=Introibo ad altare Dei.	!LO:TX:a:t=12. Dominica in Sexageſima. Solus Baſſus canet.
0r	1.dd
.	2dd\
=2-	=2-
1.f	1ff
.	2cc\
2f\	2cc\
=3	=3
1a	4ee\
.	4dd\
.	4ee\
.	4ff\
2e\	2.gg\
2e\	.
.	8ff\
.	8ee\
=4-	=4-
1.B	4dd\
.	4cc\
.	4dd\
.	4ee\
.	2.ff\
2B/	.
.	8ee\
.	8dd\
=5	=5
*clefC4	*
1.A	4cc\
.	4a/
.	2.dd\
.	8cc\
.	8b\
2A/	4cc\
.	4dd\
=6-	=6-
1c	4ee\
.	4dd\
.	4ee\
.	4ff\
2G/	4gg\
.	4g/
[<2G/	4dd\
.	4cc\
=7	=7
2G/]	4dd\
.	4ee\
2.d\	2.ff\
4d\	4ff\
2c#X\	1ee
=8-	=8-
*lig	*
1d	.
.	4dd\
.	4cc\
1D	2dd\
.	2dd\
*Xlig	*
=9	=9
0A	2.ee\
.	4dd\
.	4cc\
.	4a/
.	2cc\
=10-	=10-
1g	2b/
.	2.dd\
2d\	.
.	8cc\
.	8b\
2f\	4a/
.	4b/
*custos:e	*custos:cc
!!LO:LB:g=original
=11	=11
2e\	2cc\
1E	2.b/
.	2a/
2E/	.
.	4g#X/
=12-	=12-
1F	2a/
.	1a
2D/	.
[>2F/	2a/
=13	=13
2F/]	1f
4E/	.
4D/	.
2.A/	2e/
.	1ee
4B\	.
=14-	=14-
2c\	.
4C/	2ee\
4D/	.
4E/	1gg
4D/	.
4E/	.
4F/	.
=15	=15
4G/	2dd\
4A/	.
4B\	1dd
4c\	.
2d\	.
4D/	2.ff\
4E/	.
=16-	=16-
4F/	.
4G/	4ff\
4A/	1ee
4B\	.
4c\	.
4A\	.
4d\	[<2dd\
4D/	.
=17	=17
1A	4dd\]
.	8cc#X\
.	8b\
.	2cc#\
2D/	1.dd
2d\	.
=18-	=18-
1B-X	.
.	2dd\
1A	2ccny\
.	[y2ee\
=19	=19
!	!LO:N:xstem:cue
1f	4ee\]
.	8dd\
.	8cc\
.	2dd\
2e\	2ee\
2A/	2.cc\
=20-	=20-
1F	.
.	4b/
.	2.a/
2E/	.
.	8g/
.	8f/
2E/	2g/
=21	=21
4A/	2a/
4G/	.
4F/	2aa\
4E/	.
1D	1ff
=22-	=22-
1A	1ee
=23	=23
*M3/2	*M3/2
0A	0ee
1D	1ff
=24	=24
1.G	1.dd
2G/	2dd\
1C	1ee
=25-	=25-
1.F	1.cc
2F/	2cc\
1F	1a
=26-	=26-
1D	0dd
1A	.
1AA	1cc#X
=27-	=27-
*M2/1	*M2/1
*met(C|)	*met(C|)
[<1D	2.dd\
.	4ee\
=28	=28
1D]	2.ff\
.	8ee\
.	8dd\
2r	4cc\
.	4a/
1A	4cc\
.	4dd\
=29-	=29-
.	4ee\
.	4ff\
2A/	1ee
1c	.
.	4dd\
.	4cc\
=30	=30
1G	[<1dd
2r	1dd_<
1D	.
=31	=31
.	1dd]
2D/	.
1F	1a
=32	=32
1C	2r
.	1ee
2.c\	.
.	2ee\
8B\	.
8A\	.
=33-	=33-
4G/	1gg
4A/	.
4B\	.
4c\	.
2d\	2dd\
[y2D/	[y2ff\
*custos:D	*custos:ff
!!LO:LB:g=original
=34	=34
!LO:N:xstem:cue	!LO:N:xstem:cue
4D/]	4ff\]
4D/	4ff\
1A	4ee\
.	4dd\
.	4ee\
.	4cc\
4G/	2.ff\
4F/	.
=35-	=35-
2c\	.
.	8ee\
.	8dd\
2C/	2ee\
1F	2a/
.	2a/
=36	=36
1B-X	2a/
.	2aa\
2A/	1a
2c#X\	.
=37-	=37-
4d\	1ff
4e\	.
4f\	.
4d\	.
2a\	1ee
2A/	.
=38	=38
1F	2cc\
.	2a/
1E	2g/
.	2gg\
=39-	=39-
1D	2ff\
.	2.dd\
1A	.
.	8cc#X\
.	8b\
.	2cc#\
=40	=40
1D	1dd
=41-	=41-
*M3/2	*M3/2
0A	0ee
1D	1ff
=42-	=42-
1.G	1.dd
2G/	2dd\
1C	1ee
=43-	=43-
1.F	1.cc
2F/	2cc\
1F	1a
=44	=44
1D	2dd\
.	2cc\
0E	2b/
.	2a/
.	1b
=45-	=45-
0.A	0.a
=46-	=46-
0a	0ee
1d	1ff
=47-	=47-
1.g	1.dd
2g\	2dd\
1e	1ee
=48	=48
1.f	1.cc
2e\	2cc\
1d	1ff
=49-	=49-
1c	1ee
1g	0dd
1G	.
=50-	=50-
0.c	0.ee
=51-	=51-
0C	0gg
1G	1dd
=52	=52
1.D	1.ff
2D/	2ff\
1A	1ee
=53-	=53-
1.F	1.a
2F/	2a/
1E	1b
=54-	=54-
1D	0dd
0A	.
.	1cc#X
=55-	=55-
*M2/1	*M2/1
*met(C|)	*met(C|)
2D/	1dd
2G/	.
=56	=56
2G/	00dd
2G/	.
1.B	.
=57-	=57-
.	.
2F/	.
1G	.
=58-	=58-
1GG	1dd
1Dl	1ddl
==	==
*-	*-
!!!system-decoration: *
!!!RDF**kern: > = above
!!!RDF**kern: < = below
!!!RDF**kern: l = terminal long
!!!ENC: Andrzej Gręziak
!!!END: 2021-12-17
!!!ENC: Andrzej Kubiczek
!!!END: 2021-12-22
